T: Men Of The West, The
M: 3/4
L: 1/8
K: Gmaj
B>GE|G2F|E3|E2:|2\E3|G>FE|E<e d/B/|c2e|\B>GE|G2F|E3|E2|]
